li/weather-fahrenheit.svg

<svg role="img" focusable="false" aria-hidden="true" xmlns="http://www.w3.org/2000/svg" viewBox="0 0 14 14" height="1em" width="1em">
  <path d="M 1,3.8421051 C 1,3.2781955 1.2030075,2.7932331 1.597744,2.3984962 1.992481,2.0037594 2.477444,1.8007519 3.041353,1.8007519 c 0.552632,0 1.037594,0.2030075 1.432331,0.5977443 0.394737,0.4060151 0.597745,0.8796993 0.597745,1.4436089 0,0.56391 -0.203008,1.048872 -0.597745,1.454887 -0.394737,0.406015 -0.879699,0.609023 -1.432331,0.609023 -0.552631,0 -1.037594,-0.203008 -1.443609,-0.609023 C 1.2030075,4.8909771 1,4.4060151 1,3.8421051 Z m 0.992481,0 c 0,0.293233 0.101504,0.541354 0.304511,0.755639 0.214286,0.214286 0.462406,0.31579 0.75564,0.31579 0.293233,0 0.541353,-0.101504 0.755639,-0.31579 C 4.022556,4.3834591 4.12406,4.1353381 4.12406,3.8421051 4.12406,3.5488722 4.022556,3.3007519 3.808271,3.0977443 3.593985,2.8947368 3.345865,2.7819549 3.052632,2.7819549 c -0.293234,0 -0.541354,0.1015037 -0.75564,0.3045112 C 2.093985,3.2894737 1.992481,3.537594 1.992481,3.8421051 Z m 4.973684,7.7706769 c 0,0.157895 0.05639,0.304511 0.169173,0.417293 0.112782,0.112782 0.259399,0.169173 0.417294,0.169173 0.157894,0 0.304511,-0.05639 0.417293,-0.169173 0.112782,-0.112782 0.169173,-0.259398 0.169173,-0.417293 l 0,-4.2744359 3.225564,0 c 0.157894,0 0.304511,-0.05639 0.417293,-0.180451 0.112782,-0.124061 0.169173,-0.259399 0.169173,-0.428572 0,-0.169173 -0.05639,-0.304511 -0.169173,-0.428571 -0.112782,-0.112782 -0.259399,-0.169173 -0.428572,-0.169173 l -3.225563,0 0,-3.0789475 4.30827,0 c 0.157895,0 0.293233,-0.056391 0.406015,-0.169173 C 12.954887,2.7706767 13,2.6240601 13,2.4548872 13,2.2857143 12.94361,2.1503759 12.842105,2.0263158 12.740602,1.9022556 12.605263,1.8571428 12.43609,1.8571428 l -5.379699,0 c -0.07895,0 -0.112782,0.045113 -0.112782,0.1240602 l 0,9.631579 z"/>
</svg>

<svg aria-hidden="true" xmlns="http://www.w3.org/2000/svg" viewBox="0 0 14 14" height="1em" width="1em">
  <path d="M1 3.842c0-.564.203-1.049.598-1.444.394-.394.88-.597 1.443-.597.553 0 1.038.203 1.433.597.394.407.597.88.597 1.444a2.02 2.02 0 0 1-.597 1.455c-.395.406-.88.609-1.433.609a1.979 1.979 0 0 1-1.443-.609A2.02 2.02 0 0 1 1 3.842Zm.992 0c0 .293.102.541.305.756.214.214.462.316.756.316.293 0 .541-.102.755-.316.215-.215.316-.463.316-.756a.98.98 0 0 0-.316-.744 1.068 1.068 0 0 0-.755-.316c-.294 0-.542.101-.756.304a1.02 1.02 0 0 0-.305.756Zm4.974 7.77a.58.58 0 0 0 .587.587.58.58 0 0 0 .586-.586V7.338h3.226a.547.547 0 0 0 .417-.18.605.605 0 0 0 .17-.429.605.605 0 0 0-.17-.428.587.587 0 0 0-.429-.17H8.128V3.054h4.308a.554.554 0 0 0 .406-.17.578.578 0 0 0 .158-.428.648.648 0 0 0-.158-.429c-.101-.124-.237-.169-.406-.169h-5.38c-.079 0-.112.045-.112.124v9.632z"/>
</svg>
